X:1
T:Title
%%score 1 2 3
L:1/8
Q:1/4=60
M:3/4
K:C
V:1 treble nm="Alto" snm="A."
V:2 treble-8 nm="Tenor" snm="T."
V:3 bass nm="Bass" snm="B."
V:1
 C4 E2 | D2 F3 E | G4 G2 | A4 F2 | G2 G2 E2 | EE E2 DC | FE C2 DF- | FE C2 B,A,/B,/ | C2 z2 E2 | %9
w: Quam~ *|pul chra~ *|es~ et~|quam~ de|co ra,~ ca|ris si ma~ in~ *|de * li ci *|* * * is.~ * *|* Sta|
 E2 E2 z2 | F2 D2 z2 | F2 FF G2 | F2 G2 A2- | A F2 G E2 | F2 z2 D2 | E3 E C2 | B,2 C2 B,2 | C4 z2 | %18
w: tu ra~|tu a~|as si mi la|ta~ est~ pal||me,~ et~|u be a~|tu a~ bo|tris.~|
 G2 C2 D2 | C2 z2 EF | G A2 G2 ^F | G4 z2 | A2 A2 FF | G2 C2 z2 | E2 CD B,A,/B,/ | C2 z2 EF | %26
w: Ca put~ tu|um~ ut~ *|Car * * me|lus,~|col lum~ tu um~|si cut~|tur * * * * *|ris~ e *|
 GA F2 G2 | GF ED ^CB,/C/ | D6 | F6 | F4 A2 | G3 F FG | E2 F2 z2 | F2 FF F2 | G2 G2 FD | %35
w: * * bur *|* * * * ne * *|a.~|Ve|ni,~ di|le * * *|cte~ mi,~|e gre dI a|mur~ in~ * *|
 F2 G A2 G- | G/E/^F G2 z2 | A4 A2 | _B2 A2 GF | F4 E2 | F2 z2 F2 | GG E2 C2 | E3 D D2 | %43
w: a * * *|* * * grum,~|et~ vl|de * * *|a *|mus~ si~|flo res~ fru ctus~|par * tu|
 ^CC D2 z2 | C2 FF A2- | A2 G3 E | F2 C2 DD | C4 z2 | CC CA, B,2 | C2 z2 F2- | F2 E4 | D4 ^C2 | %52
w: ri e runt,~|si~ flo ru e|* runt~ *|ma la~ Pu ni|ca.~|I bi~ da bo~ ti|bi~ u|* be|ra~ me|
 D2 z2 FE | CE F G2 E | CD F2 ED- | DC D B,2 A, | C6 |] %57
w: a.~ Al *|le * * * *||* * * lu *|ia.~|
V:2
 c6 | G2 D2 F2 | C4 c2 | d2 A2 B2 | c2 G2 C2 | C.C C2 z A | B c2 A F2 | FG EC F2 | G2 z2 C2 | %9
w: Quam~|pul chra~ *|es~ et~|quam~ * de|co ra,~ ca|ris si ma~ in~|de li * *|* * * * ci|is.~ Sta|
 E2 G2 A2- | A2 F2 D2 | F2 cc d2 | c2 d2 e2- | ec d2 B2 | c2 A2 B2 | c3 c G2 | F2 GE F2 | %17
w: tu ra~ tu|* a~ as|* si mi la|ta~ est~ pal||me,~ * et~|u be a~|tu a~ * bo|
 G2 C2 C2 | z2 GA _B2 | G2 C4 | C4 c2 | d2 B2 c2 | c2 c2 BB | c2 G2 C2 | G2 CD F2 | G2 C2 cA | %26
w: tris.~ Ca put~|tu * *|um~ ut~|Car me|lus,~ * *|col lum~ tu um~|si * cut~|tur * * *|ris~ * e *|
 GF D2 EC- | CD GF G2 | A6 | D6 | D4 F2 | G3 A cd | B2 c4 | d2 cc c2 | d2 z2 z2 | dc B A2 d | %36
w: * * bur * *|* * * * ne|a.~|Ve|ni,~ di|le * * *|cte~ mi,~|e gre dI a|mur~|in~ * * a *|
 c2 d2 B2 | A2 F4 | D2 A2 c2 | d2 B4 | c2 A2 A2 | cc G2 G2 | C4 D2 | GG A4 | c2 cc F2 | F2 z2 c2 | %46
w: * grum,~ *|et~ vl|de a *||mus~ * si~|flo res~ fru ctus~|par tu|ri e runt,~|si~ flo ru e|runt~ ma|
 F2 A2 GG | A2 E2 F2 | GG EE F2 | G2 c2 A2- | A2 B4 | A4 G2 | A4 z2 | A3 B2 c | A3 B cA- | %55
w: * la~ Pu ni|ca.~ * *|I bi~ da bo~ ti|bi~ * u|* be|ra~ me|a.~|Al le *||
 AF GA F2 | G6 |] %57
w: * * * * lu|ia.~|
V:3
 C6 | B,2 A,4 | G,4 E,2 | D,4 D,2 | C,2 C,2 C2 | CC G,2 F,2 | D,C, F,4 | D,C, E,2 D,2 | %8
w: Quam~|pul chra~|es~ et~|quam~ de|co ra,~ ca|ris si ma~ in~|de * li|* * * is.~|
 C,2 z2 G,2 | G,2 C,2 F,2 | D,2 z2 F,2 | A,2 A,A, _B,2 | A,2 G,2 C2- | CA, _B,2 G,2 | F,4 F,2 | %15
w: * Sta|tu ra~ *|tu *|as si mi la|ta~ est~ pal||me,~ et~|
 C,3 C, E,2 | D,2 C,2 D,2 | C,2 z2 G,2 | C,4 _B,,2 | C,2 G,2 G,A, | G, C2 G, A,2 | G,2 z2 C,2 | %22
w: u be a~|tu a~ bo|tris.~ *|Ca tu|um~ * ut~ *|Car * * *|lus,~ *|
 F,2 F,2 D,D, | C,4 G,2 | C,2 E,F, D,2 | C,2 E,2 C,D, | E,D, A,2 G,2 | G,2 C,D, E,2 | D,6 | A,6 | %30
w: col lum~ tu um~|si *|tur * * *|ris~ * e *|* * bur *|* * * ne|a.~|Ve|
 D4 C2 | _B,3 A, A,B, | G,2 F,4 | D,2 A,A, A,2 | G,2 B,C D2 | _B,A, G, C2 B, | A,2 G,2 z2 | C4 C2 | %38
w: ni,~ di|le * * *|cte~ mi,~|e gre dI a|mur~ in~ * *|a * * * *|* grum,~|et~ vl|
 D2 C2 A,2 | _B,2 G,4 | F,4 F,2 | C,C, C,2 E,2 | G,3 F, F,2 | E,E, D,4 | A,2 A,A, C2- | C2 B,2 z2 | %46
w: de * *|a *|mus~ si~|flo res~ fru ctus~|par * tu|ri e runt,~|si~ flo ru e|* runt~|
 A,2 A,2 B,B, | C2 z2 A,2 | E,E, C,C, D,2 | C,4 D,2- | D,2 G,4 | F,2 E,4 | D,6 | A,2 F,E, G,A,- | %54
w: ma la~ Pu ni|ca.~ *|I bi~ da bo~ ti|bi~ u|* be|ra~ *|a.~|le * * * *|
 A, F,2 D, C,D, | F,2 E,F, D,2 | C,6 |] %57
w: |* * lu *|ia.~|

